X:555
T: Blarney Pilgrim
M: 6/8
L: 1/8
R: Jig
K: Dmix
DED DEG|A3 ABc|BAG AGE|GEA GED|
DED DEG|A3 ABc|BAG AGE|GED D3 :|
ded dBG|AGA BGE|d3 dBG|ABA G3|
g2e dBG|AGA BGE|B2G AGE|GAG G3 :|
A2D B2D|A2D ABc|BAG AGE|GEA GED|
A2D B2D|A2D ABc|BAG AGE|GED D3 :|
